X:1
T:6 Gesänge for 4 Male Voices
T:Rastlose Liebe
T:Louis Spohr
T:Text: J. W. v. Goethe
T:Rastlose Liebe
T:Op. 44,2
T:CPDL - Creative Commons Attribution Non Commercial 3.0
T:CPDL - Creative Commons Attribution Non Commercial 3.0
T:CPDL - Creative Commons Attribution Non Commercial 3.0
T:CPDL - Creative Commons Attribution Non Commercial 3.0
T:CPDL - Creative Commons Attribution Non Commercial 3.0
T:CPDL - Creative Commons Attribution Non Commercial 3.0
T:CPDL - Creative Commons Attribution Non Commercial 3.0
T:CPDL - Creative Commons Attribution Non Commercial 3.0
C:Louis Spohr
Z:J. W. v. Goethe
Z:CPDL - Creative Commons Attribution Non Commercial 3.0
%%score [ 1 2 3 4 ]
L:1/8
Q:1/4=90
M:6/8
K:A
V:1 treble-8 nm="Tenor\n1"
V:2 treble-8 nm="Tenor\n2"
V:3 bass nm="Bass\n1"
V:4 bass nm="Bass\n2"
V:1
"^Allegretto"!mf! e | e2 ^d e=dc | B2 c edB |!<(! c2!<)! c!>(! d!>)!Be | %4
w: Dem|Schnee, dem Re- gen, dem|Wind ent- ge- gen, im|Dampf der Klüf- te, durch|
!<(! c2!<)! c!>(! d!>)!B!>(!e/e/!>)! | c!>(!e/!>)!e/c!<(! c2!<)! ^d |!f! e3- e2 ^d | %7
w: Ne- bel- düf- te, im- mer|zu! Im- mer zu! oh- ne|Rast _ und|
 c2"^cresc." ^d/d/ eef |!ff! g3- g2 f | e2 z z3 |"^dolce"!pp! e3 e2 e | =f3- fed | (B2 =c-) cBA | %13
w: Ruh', im- mer zu, oh- ne|Rast _ und|Ruh'!|Lie- ber durch|Lei- * * den|möcht'- * * ich mich|
 (G2 B) B2 z |!mp! e3 e2 e | =f3- fed | (B2 =c-) cBA | (G2 B) B2 z | ^c3!<(! c2!<)! c | %19
w: schla- * gen,|als so viel|Freu- * den des|Le- * * bens er-|tra- * gen.|Al- le das|
!>(! (d2!>)! B) B2 ^B | c3!<(! c2!<)! c |!>(! (d2!>)! B) B2 z | c3 c!<(!de!<)! | %23
w: Nei- * gen von|Her- zen zu|Her- * zen,|ach! wie _ so|
!>(! (^e2 f)!>)! f2 z | B3- Bcd | (d2 c) c2 z |!pp! a6- |"^cresc." a6- |!f! (agf"^dim." ^efc | %29
w: ei- * gen|schaf- * fet das|Schmer- * zen,|schaf-|||
 =edc d)FB |!p! A6- | (A3 G3) | A z/!p! A/A/A/ dA/A/=f/f/ | eA z d>A=f | e2 A z3 |!f! ^d3 d2 d | %36
w: * * * * fet das|Schmer-||zen! Wie soll ich flie- hen? wie soll ich|flie- hen? Wäl- der- wärts|zie- hen?|Al- les ver-|
 (e2 g) g2 z | a3 ^d2 d | (e3 B3 |"^dim." =d3 =c3) |!p! !fermata!B2 z z2 !fermata!z | %41
w: ge- * bens!|Al- les ver-|ge- *||bens!|
!pp! ^c3!<(! c2 c!<)! |!>(! (c2!>)! d) d2 z | d3!<(! d2 ^d!<)! |!>(! (^d2!>)! e) e2 z | %45
w: Kro- ne des|Le- * bens,|Kro- ne des|Le- * bens,|
!f! f3 e2 =d | c3- c2 z |!p! d3 c2 B | e3- e2 z |!f! f3 e2 d |"^dim." (c3 ^d3) |!p! e3 G2 G | A6- | %53
w: Glück oh- ne|Ruh', _|Lie- be, bist|du! _|Glück oh- ne|Ruh', _|Lie- be, bist|du,|
 A6- | A3 E3- | E3 F2 G | A6 | A3!<(! A2!<)! A | A6- |!>(! A6-!>)! | A2 z z2 |] %61
w: _|* Lie-|* be, bist|du!|Glück oh- ne|Ruh'.|_||
V:2
!mf! c | c2 ^B c=BA | G2 A GGG |!<(! A2!<)! A!>(! B!>)!BB |!<(! A2!<)! A!>(! B!>)!B!>(!B/B/!>)! | %5
w: Dem|Schnee, dem Re- gen, dem|Wind ent- ge- gen, im|Dampf der Klüf- te, durch|Ne- bel- düf- te, im- mer|
 A!>(!B/!>)!B/A!<(! c2!<)! c |!f! c3 ^B3 | c2"^cresc." ^B/B/ ccc |!ff! =B3 A3 | G2 z!pp! BBB | %10
w: zu! Im- mer zu! oh- ne|Rast und|Ruh', im- mer zu, oh- ne|Rast und|Ruh'! Lie- ber durch|
"^dolce" B2 B =cBc | d2 d ddd | d^dd ddd | e2 e!mp! eee | B2 B =cBc | d2 d ddd | d^dd ddd | %17
w: Lei- den möcht' ich mich|schla- gen, als so viel|Freu- den des Le- bens er-|tra- gen, lie- ber durch|Lei- den möcht' ich mich|schla- gen, als so viel|Freu- den des Le- bens er-|
 e2 e e=dB | AAA!<(! AA!<)!A |!>(! B2!>)! B EEE | A2 A!<(! AA!<)!A |!>(! B2!>)! B B!<(!BB!<)! | %22
w: tra- gen. Al- le das|Nei- gen von Her- zen zu|Her- zen, ach! wie so|ei- gen schaf- fet das|Schmer- zen, lie- ber durch|
!>(! A2!>)! A A!<(!B!<)!c |!>(! B2 A!>)! AAA | AAA GGB | B2 A!pp! AcB | AAA B"^cresc."BB | %27
w: Lei- den möcht' ich mich|schla- gen, als so viel|Freu- den des Le- bens er-|tra- gen. Al- le das|Nei- gen von Her- zen zu|
 =c2 c ^ccc |!mf! (d2 A)"^dim." (A2 ^A) |!p! B2 z B z B |!pp! c2 c =ccc | B2 B BBB | A2 A z3 | %33
w: Her- zen, ach! wie so|ei- * gen _|schaf- fet das|Schmer- zen, ach wie so|ei- gen schaf- fet das|Schmer- zen!|
!p! A3 A2 A | A2 A z3 | z2!f! =c- cBA | (G2 B) =d2 z | z6 | z6 | z6 | z2 z z2 !fermata!z | %41
w: Wie soll ich|flie- hen?|Al- * les ver-|ge- * bens!|||||
!pp! A3!<(! A2 ^^F!<)! |!>(! (^^F2!>)! G) G2 z | G3!<(! G2 G!<)! |!>(! A3!>)! A2 z |!f! A3 G2 B | %46
w: |||||
 A3- A2 z |!p! B3 A2 G | A3- A2 z |!f! d3 c2 B |"^dim." (A3 =c3) |!p! ^c3 d2 d | c3 e3 | ^d3 =d3 | %54
w: |||||Lie- be, bist|du, Glück|oh- ne|
 c3 c3- | c3 ^B2 =B | A3 ^E3 |!<(! F3!<)! =F3 | E6- |!>(! E6-!>)! | E2 z z2 |] %61
w: Ruh', Lie-|* be, bist|du! Glück|oh- ne|Ruh'.|_||
V:3
!mf! E, | E,2 F, E,E,E, | E,2 E, E,E,E, |!<(! E,2!<)! E,!>(! =F,!>)!F,E, | %4
w: Dem|Schnee, dem Re- gen, dem|Wind ent- ge- gen, im|Dampf der Klüf- te, durch|
!<(! E,2!<)! E,!>(! =F,!>)!F,!>(!E,/E,/!>)! | E,!>(!E,/!>)!E,/E,!<(! E,F,!<)!^^F, |!f! G,3 ^F,3 | %7
w: Ne- bel- düf- te, im- mer|zu! Im- mer zu! oh- * ne|Rast und|
 E,2"^cresc." F,/F,/ =G,G,F, |!ff! E,3 ^D,3 | E,2 z!pp! G,G,G, |"^dolce" G,2 G, A,G,A, | %11
w: Ruh', im- mer zu, oh- ne|Rast und|Ruh'! Lie- ber durch|Lei- den möcht' ich mich|
 G,2 G, G,G,G, | G,A,A, A,F,F, | E,2 G,!mp! G,G,G, | G,2 G, A,G,A, | G,2 G, G,G,G, | %16
w: schla- gen, als so viel|Freu- den des Le- bens er-|tra- gen, lie- ber durch|Lei- den möcht' ich mich|schla- gen, als so viel|
 G,A,A, A,F,F, | E,2 G, G,G,G, | E,E,E,!<(! E,E,!<)!E, |!>(! =F,2!>)! F, E,E,E, | %20
w: Freu- den des Le- bens er-|tra- gen. Al- le das|Nei- gen von Her- zen zu|Her- zen, ach! wie so|
 E,2 E,!<(! E,E,!<)!E, |!>(! =F,2!>)! F, E,!<(!E,E,!<)! |!>(! E,2!>)! E, E,!<(!E,!<)!A, | %23
w: ei- gen schaf- fet das|Schmer- zen, lie- ber durch|Lei- den möcht' ich mich|
!>(! G,2 F,!>)! F,F,F, | E,E,E, E,E,G, | G,2 A,!pp! A,A,G, | E,E,E, =F,"^cresc."F,F, | %27
w: schla- gen, als so viel|Freu- den des Le- bens er-|tra- gen. Al- le das|Nei- gen von Her- zen zu|
 ^F,2 F, =G,G,G, |!mf! F,3"^dim." F,3 |!p! F,2 z F, z F, |!pp! E,2 E, E,E,E, | E,2 E, E,E,E, | %32
w: Her- zen, ach! wie so|ei- gen|schaf- fet das|Schmer- zen, ach wie so|ei- gen schaf- fet das|
 (A,2 =G, =F,2 D,) | C,2 z z3 | z3/2 E,/!<(!E,/E,/!<)!"^cresc." =CA,/E,/E,/E,/ |!f! =F,6 | %36
w: Schmer- * * *|zen!|Wie soll ich flie- hen? wie soll ich|flie-|
 E,2 z z3 | z2!f! =C- CB,A, | (G,6 |"^dim." B,3 A,3) |!p! !fermata!G,2 z z2 !fermata!z | %41
w: hen?|Al- * les ver-|ge-||bens!|
!pp! E,3!<(! E,2 E,!<)! |!>(! E,3!>)! E,2 z | E,3!<(! E,2 F,!<)! |!>(! (F,2!>)! =G,) G,2 z | %45
w: Kro- ne des|Le- bens,|Kro- ne des|Le- * bens,|
!f! F,3 ^G,2 G, | A,3- A,2 z |!p! F,3 E,2 E, | E,3- E,2 z |!f! A,3 A,2 G, |"^dim." A,6 | %51
w: Glück oh- ne|Ruh', _|Lie- be, bist|du! _|Glück oh- ne|Ruh',|
!p! A,3 B,2 B, | A,3 =G,3 | F,3 =F,3 | E,3 E,3- | E,3 ^D,2 =D, | C,3 C,3 |!<(! D,3!<)! D,3 | C,6- | %59
w: Lie- be, bist|du, Glück|oh- ne|Ruh', Lie-|* be, bist|du! Glück|oh- ne|Ruh'.|
!>(! C,6-!>)! | C,2 z z2 |] %61
w: _||
V:4
!mf! A,, | A,,2 A,, A,,B,,C, | D,2 C, B,,B,,E, |!<(! A,,2!<)! A,,!>(! A,,!>)!A,,G,, | %4
w: ||||
!<(! A,,2!<)! A,,!>(! A,,!>)!A,,!>(!G,,/G,,/!>)! | A,,!>(!G,,/!>)!G,,/A,,!<(! A,,2!<)! A,, | %6
w: ||
!f! G,,3 G,,3 | A,,2"^cresc." A,,/A,,/ ^A,,A,,A,, |!ff! B,,3 B,,3 | E,2 z!pp! E,E,E, | %10
w: ||||
"^dolce" E,2 E, E,E,E, | E,2 E, E,E,E, | E,E,E, E,E,E, | E,2 E,!mp! E,E,E, | E,2 E, E,E,E, | %15
w: |||||
 E,2 E, E,E,E, | E,E,E, E,E,E, | E,2 E, E,E,E, | A,,A,,A,,!<(! A,,A,,!<)!A,, | %19
w: ||||
!>(! A,,2!>)! A,, G,,G,,G,, | A,,2 A,,!<(! A,,A,,!<)!A,, |!>(! A,,2!>)! A,, G,,!<(!G,,G,,!<)! | %22
w: |||
!>(! A,,2!>)! A,, A,,!<(!A,,!<)!A,, |!>(! D,2 D,!>)! D,D,D, | E,E,E, E,E,E, | ^E,2 F,!pp! F,=E,D, | %26
w: ||||
 C,C,C, D,"^cresc."D,D, | ^D,2 D, E,E,E, |!mf! (F,2 D,)"^dim." D,3 |!p! D,2 z D, z D, | %30
w: ||||
!pp! E,2 E, E,E,E, | E,2 E, E,E,E, | A,6 | A,, z/!p! A,,/!<(!A,,/A,,/!<)! =F,D,/D,/D,/D,/ | %34
w: ||Schmer-|zen! Wie soll ich flie- hen? wie soll ich|
 =C,3 A,,2 z | z6 | z3!mf!!<(! E,2 E,!<)! |!f! =F,3 F,2 F, | (E,6 |"^dim." =F,3 ^D,3) | %40
w: flie- hen?||Al- les,|al- les ver-|ge-||
!p! !fermata!E,2 z z2 !fermata!z |!pp! A,,3!<(! A,,2 ^A,,!<)! |!>(! (^A,,2!>)! B,,) B,,2 z | %43
w: bens!|||
 B,,3!<(! B,,2 ^B,,!<)! |!>(! (^B,,2!>)! C,) C,2 z |!f! D,3 E,2 E, | F,3- F,2 z |!p! B,,3 E,2 D, | %48
w: |||||
 C,3- C,2 z |!f! D,3 E,2 ^E, |"^dim." (F,3 =F,3) |!p! E,3 E,2 E, | A,,6- | A,,6- | A,,3 A,,3- | %55
w: |||Lie- be, bist|du,|_||
 A,,3 A,,2 A,, | A,,6 |!<(! A,,3!<)! A,,2 A,, | A,,6- |!>(! A,,6-!>)! | A,,2 z z2 |] %61
w: ||Glück oh- ne|Ruh'.|_||

